images/wl-icons/dollar-gray.svg

<svg xmlns="http://www.w3.org/2000/svg" xmlns:xlink="http://www.w3.org/1999/xlink" id="dollar-gray-Capa_1" xml:space="preserve" height="26" viewBox="0 0 18.652 26.192" width="19" version="1.1" y="0px" x="0px" enable-background="new 0 0 18.652 26.192"><path d="m10.479 11.041c-0.083-0.018-0.146-0.036-0.224-0.053v-2.828c1.307 0.211 2.689 0.783 3.978 1.69l2.514-3.549c-1.758-1.41-3.868-2.216-6.492-2.376v-2.483h-1.265v2.461c-4.173 0.11-6.723 2.503-6.723 5.79v0.054c0 3.69 2.92 4.794 6.723 5.671v2.979c-1.695-0.217-3.308-0.925-4.78-2.097l-2.797 3.34c2.013 1.803 4.706 2.793 7.577 2.968v2.143h1.265v-2.118c4.207-0.112 6.984-2.289 6.984-5.893v-0.054c0-3.391-2.59-4.738-6.76-5.645m-3.135-1.76v-0.054c0-0.614 0.547-1.108 1.646-1.154v2.587c-1.279-0.389-1.646-0.749-1.646-1.379m4.819 7.95c0 0.744-0.671 1.197-1.908 1.236v-2.724c1.49 0.433 1.908 0.823 1.908 1.436v0.052z" fill="#A9A9AA"/></svg>

<?xml version="1.0" encoding="utf-8"?>
<!DOCTYPE svg PUBLIC "-//W3C//DTD SVG 1.1//EN" "http://www.w3.org/Graphics/SVG/1.1/DTD/svg11.dtd"><svg xmlns="http://www.w3.org/2000/svg" xmlns:xlink="http://www.w3.org/1999/xlink" viewBox="0 0 18.652 26.192" height="26.192px" xml:space="preserve" x="0px" y="0px" id="Capa_1" width="18.652px" version="1.1" enable-background="new 0 0 18.652 26.192">
  <path fill="#A9A9AA" d="M10.479,11.041c-0.083-0.018-0.146-0.036-0.224-0.053V8.16c1.307,0.211,2.689,0.783,3.978,1.69l2.514-3.549  c-1.758-1.41-3.868-2.216-6.492-2.376V1.442H8.99v2.461c-4.173,0.11-6.723,2.503-6.723,5.79v0.054c0,3.69,2.92,4.794,6.723,5.671  v2.979C7.295,18.18,5.682,17.472,4.21,16.3l-2.797,3.34c2.013,1.803,4.706,2.793,7.577,2.968v2.143h1.265v-2.118  c4.207-0.112,6.984-2.289,6.984-5.893v-0.054C17.239,13.295,14.649,11.948,10.479,11.041 M7.344,9.281V9.227  c0-0.614,0.547-1.108,1.646-1.154v2.587C7.711,10.271,7.344,9.911,7.344,9.281 M12.163,17.231c0,0.744-0.671,1.197-1.908,1.236  v-2.724c1.49,0.433,1.908,0.823,1.908,1.436V17.231z" />
</svg>
